X:1
T:Serenad
T:Serenad
T:Jacob Axel Josephson
C:J. A. Josephson
%%score [ 1 2 3 4 ]
L:1/8
Q:1/8=120
M:3/8
K:C
V:1 treble-8 nm="T1"
V:2 treble-8 nm="T2"
V:3 bass nm="B1"
V:4 bass nm="B2"
V:1
!p!"^Något fort" e d e | f3/2 e/ d | e B (c/d/) | c3/2 B/ A | g!<(! c d!<)! | e2 z |!p! g c d | %7
w: Stjer- nor- na|tin- dra ren|Högt up- på _|him- me- len,|Jor- den är|still.|Vin- den har|
 e3/2 d/ c | B e d | c3/2 B/ A |"_ten." d A B | c2 z |:!mf! d e f | e3/2 d/ e | %14
w: som- nat in,|Sak- ta för|vän- nen min|Bed- ja jag|vill.|Förs du vid|dröm- mars hand|
!<(! ^f/ f/!<)!!f! g f | e3/2 ^d/ e |!<(! =f e!<)!!>(! ^d | e2!>)! z | f e ^d | e3/2 =d/!<(! c | %20
w: Fjär- ran till min|läng- tans land,|Hör du min|röst?|Här vill jag|kal- la dig,|
 e ^f ^g!<)! |!f! a3/2 =g/ =f |!>(!"^dim. e rit." e d3/2 B/!>)! | A2 z :| %24
w: Säg, vill du|föl- ja mig,|Ljuf- va- ste|tröst?|
V:2
!p! c B c | d3/2 c/ B | B B E | E3/2 E/ E | A!<(! c c!<)! | c2 z |!p! A c c | c3/2 G/ G | ^G B B | %9
w: Stjer- nor- na|tin- dra ren|Högt up- på|him- me- len,|Jor- den är|still.|Vin- den har|som- nat in,|Sak- ta för|
 A3/2 ^G/ A |"_ten." A A =G | G2 z |:!mf! B c d | c3/2 B/ c |!<(! ^d/ d/!<)!!f! d d | B3/2 B/ B | %16
w: vän- nen min|Bed- ja jag|vill.|Förs du vid|dröm- mars hand|Fjär- ran till min|läng- tans land,|
!<(! c B!<)!!>(! A | ^G2!>)! z | c c c | B3/2 B/!<(! A | B c d!<)! |!f! (^cd/) e/ d | %22
w: Hör du min|röst?|Här vill jag|kal- la dig,|Säg, vill du|föl- * ja mig,|
!>(!"^dim. e rit." =c B3/2 d/!>)! | c2 z :| %24
w: Ljuf- va- ste|tröst?|
V:3
!p! A, F, E, | D,3/2 E,/ F, | E, E, E, | E,3/2 D,/ C, | C,!<(! A, _A,!<)! | G,2 z |!p! F, A, A, | %7
w: Stjer- nor- na|tin- dra ren|Högt up- på|him- me- len,|Jor- den är|still.|Vin- den har|
 G,3/2 F,/ E, | E, E, E, | E,3/2 E,/ E, |"_ten." F, F, F, | E,2 z |:!mf! G, G, G, | G,3/2 G,/ G, | %14
w: som- nat in,|Sak- ta för|vän- nen min|Bed- ja jag|vill.|Förs du vid|dröm- mars hand|
!<(! A,/ A,/!<)!!f! B, A, | G,3/2 ^F,/ G, |!<(! A, G,!<)!!>(! ^F, | E,2!>)! z | A, A, A, | %19
w: Fjär- ran till min|läng- tans land,|Hör du min|röst?|Här vill jag|
 ^G,3/2 G,/!<(! A, | ^G, A, B,!<)! |!f! A,3/2 A,/ A, |!>(!"^dim. e rit." A, A,3/2 ^G,/!>)! | %23
w: kal- la dig,|Säg, vill du|föl- ja mig,|Ljuf- va- ste|
 E,2 z :| %24
w: tröst?|
V:4
!p! A,, A,, A,, | A,,3/2 A,,/ A,, | ^G,, G,, (A,,/B,,/) | A,,3/2 A,,/ A,, | F,,!<(! F, F,!<)! | %5
w: Stjer- nor- na|tin- dra ren|Högt up- på _|him- me- len,|Jor- den är|
 C,2 z |!p! F,, F, F, | C,3/2 C,/ C, | E, ^G,, G,, | A,,3/2 D,/ C, |"_ten." F,, G,, G,, | C,2 z |: %12
w: still.|Vin- den har|som- nat in,|Sak- ta för|vän- nen min|Bed- ja jag|vill.|
!mf! G,, G,, G,, | C,3/2 G,,/ C, |!<(! B,,/ B,,/!<)!!f! B,, B,, | E,3/2 B,,/ E, | %16
w: Förs du vid|dröm- mars hand|Fjär- ran till min|läng- tans land,|
!<(! A,, B,,!<)!!>(! B,, | E,2!>)! z | z3 | z3 |!<(! E, E, E,!<)! |!f! (A,,B,,/) ^C,/ D, | %22
w: Hör du min|röst?|||Säg, vill du|föl- * ja mig,|
!>(!"^dim. e rit." E, F,3/2 E,/!>)! | A,,2 z :| %24
w: Ljuf- va- ste|tröst?|

